cmd/conneroh/_static/dist/svg/train-track.svg

<svg height="18" viewBox="0 0 18 18" width="18" xmlns="http://www.w3.org/2000/svg"><path d="m2 17 15-15m-15 12 8 8m-5-11 8 8m-5-11 8 8m-5-11 8 8m-5-11 8 8m-15 12 15-15" fill="none" stroke="#fff" stroke-linecap="round" stroke-linejoin="round" stroke-width="2" transform="scale(.75)"/></svg>

<svg xmlns="http://www.w3.org/2000/svg" width="24" height="24" fill="none" stroke="white" stroke-linecap="round" stroke-linejoin="round" stroke-width="2">
    <path d="M2 17 17 2M2 14l8 8M5 11l8 8M8 8l8 8M11 5l8 8M14 2l8 8M7 22 22 7"/>
</svg>
